X: 1556
T: Ironbark Waltz
C:Frank Povah, Tas
B: australian traditional tunes wiki
M:3/4
L:1/8
R: Waltz
Q: 1/4=100
K:G
V:1 
||"G"[d2g2]z2z2|B6|B2A2"D7"B2|"G"G6|"C"G4GA|G2E2C2|"G"D4-DE|D6|
"G"[d2g2]z2z2|B6|B2A2"D7"B2|"G"G6|"A7"A3BA2|e3fe2|"D7"d3ed2|c2B2A2|
"G"d2z2d2|B6|B2A2"D7"B2|"G"G6|"C"G4GA|G2E2C2|"G"D4-DE|D6|1
"C"E4F2|G4d2|"G"d6|B6|"D7"A4A2|A2B2A2|"G"G6-|G4z2:|2
"C"E4F2|G4e2|"G"d3e dc|B4B2|"D7"A3B AB|A2B2A2|"G"G6-|G4z2||
% abcbook-tune_id 6342d53a3373e22180290355


% abcbook-boost 0
% abcbook-tablature 
% abcbook-transpose 
% abcbook-lastupdated 1665324370897
% abcbook-soundfonts 
% abcbook-repeats 1
% NFF Book 2015

